svg/sad_negative.svg

<svg width="48" height="48" viewBox="0 0 48 48" fill="none" xmlns="http://www.w3.org/2000/svg">
<path fill-rule="evenodd" clip-rule="evenodd" d="M24 4.52002C21.4419 4.52002 18.9088 5.02388 16.5453 6.00285C14.1819 6.98181 12.0345 8.41669 10.2256 10.2256C8.41669 12.0345 6.98181 14.1819 6.00285 16.5453C5.02388 18.9088 4.52002 21.4419 4.52002 24C4.52002 26.5582 5.02388 29.0913 6.00285 31.4547C6.98181 33.8181 8.41669 35.9656 10.2256 37.7745C12.0345 39.5833 14.1819 41.0182 16.5453 41.9972C18.9088 42.9762 21.4419 43.48 24 43.48C29.1664 43.48 34.1213 41.4277 37.7745 37.7745C41.4277 34.1213 43.48 29.1664 43.48 24C43.48 18.8336 41.4277 13.8788 37.7745 10.2256C34.1213 6.57237 29.1664 4.52002 24 4.52002ZM18.2 13.98C18.44 13.98 18.68 14.03 18.9 14.1C20.76 14.7 21.64 17.17 20.85 19.64C20.07 22.1 17.92 23.62 16.06 23.04C14.2 22.44 13.33 19.96 14.11 17.49C14.79 15.37 16.5 13.9 18.21 13.98H18.2ZM29.8 13.98C31.5 13.9 33.2 15.38 33.88 17.49C34.67 19.96 33.79 22.44 31.93 23.03C30.07 23.63 27.93 22.1 27.14 19.63C26.36 17.17 27.24 14.69 29.1 14.1C29.32 14.03 29.55 13.99 29.8 13.98ZM24 27.02C28.4 27.02 31.95 30.58 31.95 34.97H31.44C31.44 32.9968 30.6562 31.1044 29.2609 29.7091C27.8656 28.3139 25.9732 27.53 24 27.53C22.0268 27.53 20.1344 28.3139 18.7391 29.7091C17.3439 31.1044 16.56 32.9968 16.56 34.97H16.04C16.04 30.57 19.61 27.02 24 27.02Z" fill="#333333"/>
</svg>

<?xml version="1.0" encoding="UTF-8" standalone="no"?>
<!-- Created with Inkscape (http://www.inkscape.org/) -->
<svg id="svg8" xmlns:rdf="http://www.w3.org/1999/02/22-rdf-syntax-ns#" xmlns="http://www.w3.org/2000/svg" xmlns:osb="http://www.openswatchbook.org/uri/2009/osb" height="48" width="48" version="1.1" xmlns:cc="http://creativecommons.org/ns#" viewBox="0 0 12.7 12.7" xmlns:dc="http://purl.org/dc/elements/1.1/">
 <title id="title4753">UIO-icon</title>
 <metadata id="metadata5">
  <rdf:RDF>
   <cc:Work rdf:about="">
    <dc:format>image/svg+xml</dc:format>
    <dc:type rdf:resource="http://purl.org/dc/dcmitype/StillImage"/>
    <dc:title>UIO-icon</dc:title>
    <dc:creator>
     <cc:Agent>
      <dc:title>Joaquín Urbano</dc:title>
     </cc:Agent>
    </dc:creator>
    <dc:rights>
     <cc:Agent>
      <dc:title>GPL</dc:title>
     </cc:Agent>
    </dc:rights>
   </cc:Work>
  </rdf:RDF>
 </metadata>
 <g id="layer1" fill="#333" transform="translate(0,-284.3)">
  <path id="rect1796" d="m24 4.5176c-10.76 0-19.482 8.7224-19.482 19.482-0.0004 10.76 8.722 19.482 19.482 19.482s19.482-8.722 19.482-19.482-8.722-19.482-19.482-19.482zm-5.797 9.4614c0.239 0.01 0.473 0.051 0.697 0.123 1.862 0.59 2.737 3.068 1.954 5.535-0.784 2.467-2.93 3.988-4.792 3.394-1.86-0.592-2.733-3.071-1.949-5.537 0.676-2.123 2.386-3.593 4.09-3.515zm11.59 0c1.704-0.078 3.414 1.392 4.09 3.515 0.784 2.466-0.088 4.945-1.949 5.537-1.862 0.592-4.006-0.928-4.789-3.394-0.784-2.466 0.09-4.944 1.951-5.535 0.224-0.072 0.458-0.113 0.697-0.123zm-5.791 13.041c4.393 0.001 7.953 3.562 7.953 7.955h-0.519c0-4.11-3.329-7.443-7.436-7.444s-7.437 3.33-7.439 7.44h-0.516c0.002-4.393 3.564-7.953 7.957-7.951z" fill-rule="evenodd" transform="matrix(.26458 0 0 .26458 0 284.3)"/>
 </g>
</svg>
